!!!OTL: Die verkaufte Muellerin Es wollt ein Mueller spatzieren gehen
!!!ARE: Europa, Mitteleuropa, Deutschland (), Provinz Sachsen
!!!YOR: 4, S. 346
!!    ????
!!!SCT: Q0086W
!!!YEM: Copyright 1995, estate of Helmut Schaffrath.
**kern
*ICvox
*Ivox
!! Irregular meter.
*MX
*k[f#]
*G:
{8d
=1
8g
16b
16a
4g
8dd
8dd
=2
8cc
8a
4.g}
{8d
=3
4.a
8a
4b
4g
=4
8.b
16a
4a
8r}
{8dd
=5
8b
8cc
4.dd
8dd
=6
16ee
16dd
16cc
16b
4.a}
{8g
=7
16g
16g
8b
4.dd
8b
=8
8cc
8a
4a
8g}
==
!!!AGN: Ballade, Menschenhandel, Rettung, Hinrichtung
!!!ONB: ESAC (Essen Associative Code) Database: BALLADE
!!!AMT: irregular
!!!AIN: vox
!!!EED: Helmut Schaffrath
!!!EEV: 1.0
*-
